report_00007_2020-12-11T15:55:29.892Z/meta/score/comparison/line/1_vs_2.svg

<svg width="640" height="500" xmlns="http://www.w3.org/2000/svg" xmlns:xlink="http://www.w3.org/1999/xlink"><path fill="#fff" d="M0 0h640v500H0z"/><defs><path id="d" stroke-width=".222" stroke="currentColor" d="M-1-1h2v2h-2z"/><path id="b" stroke-width=".222" stroke="currentColor" d="M0-1.33l-1.33 2h2.66z"/><path id="f" stroke-width=".222" stroke="currentColor" d="M0 1.33L1.265.411.782-1.067l-1.564-.009-.483 1.487z"/><use xlink:href="#b" id="c" stroke="currentColor" transform="rotate(180)"/><use xlink:href="#d" id="e" stroke="currentColor" transform="rotate(45)"/><circle id="a" stroke-width=".222" stroke="currentColor" cx="0" cy="0" r="1"/></defs><g fill="none" color="#000" stroke="currentColor"><path stroke="#000" d="M62.2 430.1h9m543.8 0h-9"/><text transform="translate(53.9 434)" stroke="none" fill="#000" font-family="Arial" font-size="12" text-anchor="end"><tspan>0.42</tspan></text></g><g fill="none" color="#000" stroke="currentColor"><path stroke="#000" d="M62.2 374.6h9m543.8 0h-9"/><text transform="translate(53.9 378.5)" stroke="none" fill="#000" font-family="Arial" font-size="12" text-anchor="end"><tspan>0.44</tspan></text></g><g fill="none" color="#000" stroke="currentColor"><path stroke="#000" d="M62.2 319.2h9m543.8 0h-9"/><text transform="translate(53.9 323.1)" stroke="none" fill="#000" font-family="Arial" font-size="12" text-anchor="end"><tspan>0.46</tspan></text></g><g fill="none" color="#000" stroke="currentColor"><path stroke="#000" d="M62.2 263.8h9m543.8 0h-9"/><text transform="translate(53.9 267.7)" stroke="none" fill="#000" font-family="Arial" font-size="12" text-anchor="end"><tspan>0.48</tspan></text></g><g fill="none" color="#000" stroke="currentColor"><path stroke="#000" d="M62.2 208.4h9m543.8 0h-9"/><text transform="translate(53.9 212.3)" stroke="none" fill="#000" font-family="Arial" font-size="12" text-anchor="end"><tspan>0.5</tspan></text></g><g fill="none" color="#000" stroke="currentColor"><path stroke="#000" d="M62.2 153h9m543.8 0h-9"/><text transform="translate(53.9 156.9)" stroke="none" fill="#000" font-family="Arial" font-size="12" text-anchor="end"><tspan>0.52</tspan></text></g><g fill="none" color="#000" stroke="currentColor"><path stroke="#000" d="M62.2 97.6h9m543.8 0h-9"/><text transform="translate(53.9 101.5)" stroke="none" fill="#000" font-family="Arial" font-size="12" text-anchor="end"><tspan>0.54</tspan></text></g><g fill="none" color="#000" stroke="currentColor"><path stroke="#000" d="M62.2 42.2h9m543.8 0h-9"/><text transform="translate(53.9 46.1)" stroke="none" fill="#000" font-family="Arial" font-size="12" text-anchor="end"><tspan>0.56</tspan></text></g><g fill="none" color="#000" stroke="currentColor"><path stroke="#000" d="M62.2 446v-9m0-418.9v9"/><text transform="translate(62.2 467.9)" stroke="none" fill="#000" font-family="Arial" font-size="12" text-anchor="middle"><tspan>0</tspan></text></g><g fill="none" color="#000" stroke="currentColor"><path stroke="#000" d="M118 446v-9m0-418.9v9"/><text transform="translate(118 467.9)" stroke="none" fill="#000" font-family="Arial" font-size="12" text-anchor="middle"><tspan>10</tspan></text></g><g fill="none" color="#000" stroke="currentColor"><path stroke="#000" d="M173.9 446v-9m0-418.9v9"/><text transform="translate(173.9 467.9)" stroke="none" fill="#000" font-family="Arial" font-size="12" text-anchor="middle"><tspan>20</tspan></text></g><g fill="none" color="#000" stroke="currentColor"><path stroke="#000" d="M229.7 446v-9m0-418.9v9"/><text transform="translate(229.7 467.9)" stroke="none" fill="#000" font-family="Arial" font-size="12" text-anchor="middle"><tspan>30</tspan></text></g><g fill="none" color="#000" stroke="currentColor"><path stroke="#000" d="M285.6 446v-9m0-418.9v9"/><text transform="translate(285.6 467.9)" stroke="none" fill="#000" font-family="Arial" font-size="12" text-anchor="middle"><tspan>40</tspan></text></g><g fill="none" color="#000" stroke="currentColor"><path stroke="#000" d="M341.4 446v-9m0-418.9v9"/><text transform="translate(341.4 467.9)" stroke="none" fill="#000" font-family="Arial" font-size="12" text-anchor="middle"><tspan>50</tspan></text></g><g fill="none" color="#000" stroke="currentColor"><path stroke="#000" d="M397.2 446v-9m0-418.9v9"/><text transform="translate(397.2 467.9)" stroke="none" fill="#000" font-family="Arial" font-size="12" text-anchor="middle"><tspan>60</tspan></text></g><g fill="none" color="#000" stroke="currentColor"><path stroke="#000" d="M453.1 446v-9m0-418.9v9"/><text transform="translate(453.1 467.9)" stroke="none" fill="#000" font-family="Arial" font-size="12" text-anchor="middle"><tspan>70</tspan></text></g><g fill="none" color="#000" stroke="currentColor"><path stroke="#000" d="M508.9 446v-9m0-418.9v9"/><text transform="translate(508.9 467.9)" stroke="none" fill="#000" font-family="Arial" font-size="12" text-anchor="middle"><tspan>80</tspan></text></g><g fill="none" color="#000" stroke="currentColor"><path stroke="#000" d="M564.7 446v-9m0-418.9v9"/><text transform="translate(564.7 467.9)" stroke="none" fill="#000" font-family="Arial" font-size="12" text-anchor="middle"><tspan>90</tspan></text></g><path stroke="#000" d="M62.2 18.1V446H615V18.1H62.2z" fill="none" color="#000"/><text transform="translate(279.8 485.9)" stroke="none" fill="#000" font-family="Arial" font-size="12" text-anchor="end" color="#000"><tspan>pages</tspan></text><path stroke="#9400D3" d="M288.1 482h42.2M62.2 437.8l5.6-247.5 5.6 92.6 5.6-60.4 5.5-54.1 5.6 123.1 5.6-10 5.6-50.7 5.6 70.4 5.6-123.3 5.5 50.4 5.6 32.7 5.6-40.7 5.6 68 5.6-7 5.6-37.8 5.5-61 5.6-16.6 5.6 141.5 5.6-24.1 5.6-42.5 5.6 34.3 5.5-7.3 5.6-31.4 5.6 47.5 5.6-6.1 5.6 8.4 5.6-5.6 5.5-111.9 5.6 116.2 5.6 8.6 5.6 14.7 5.6-139.5 5.6 112.6 5.6 6 5.5-5.7 5.6-3.3 5.6.2 5.6 15.3 5.6-4.4 5.6-10.6 5.5-58.4 5.6-46.3 5.6 145.7 5.6-29.4 5.6-99.4 5.6 99 5.5-6.3 5.6-114.5 5.6 118.5 5.6 37.3 5.6-113.7 5.6 53.1 5.5-24.1 5.6 45.3 5.6 3.4 5.6-12.5 5.6-.9 5.6-99 5.5 105.8 5.6 22.3 5.6-31.2 5.6-94 5.6 101.2 5.6 1.5 5.5-82.7 5.6 88.4 5.6-55.2 5.6-22.3 5.6 49.4 5.6 27.4 5.6-72.7 5.5 84.2 5.6-1.2 5.6-11.6 5.6.1 5.6 9.9 5.6-5.1 5.5-7.1 5.6 24.5 5.6-31 5.6 15.8 5.6-17 5.6-94.7 5.5-15.5 5.6 237.2 5.6-167.9 5.6-60.6 5.6 108.7 5.6 36.2 5.5-45.6 5.6 6.4 5.6-106 5.6-4.4 5.6 112 5.6 13.7 5.5-6 5.6-109.5 5.6-9 5.6 69.1" fill="none" color="#000"/><text transform="translate(438.2 485.9)" stroke="none" fill="#000" font-family="Arial" font-size="12" text-anchor="end" color="#000"><tspan>pages+cached</tspan></text><path stroke="#009E73" d="M446.5 482h42.2M62.2 160.8l5.6 21.2 5.6-84.8 5.6 31.4 5.5-5.7 5.6 59.5 5.6-125 5.6 175 5.6-71.5 5.6-25.6 5.5-64.4 5.6 69.6 5.6-58 5.6 136.4 5.6-84.3 5.6 49 5.5-102.5 5.6 105.5 5.6-84.3 5.6 54.5 5.6-64.4 5.6 2.3 5.5 62.9 5.6-94.4 5.6 42.1 5.6 2 5.6-25.8 5.6 74.7 5.5-64.1 5.6 69.3 5.6-23.9 5.6-19.7 5.6-42.7 5.6 4 5.6 53.2 5.5 1.8 5.6-7.7 5.6 66.5L274.4 80l5.6 62.2 5.6-61.6 5.5 46.9 5.6 9 5.6 67.2 5.6-96.4 5.6-3.7 5.6 7 5.5-26.5 5.6-24.1 5.6 74.4 5.6-62.6 5.6 44.3 5.6-51.4 5.5 71.3 5.6.1 5.6-12.1 5.6 56.7 5.6-19 5.6-12.4 5.5-55.1 5.6 116.5 5.6-70.9 5.6-67.6 5.6 17.5 5.6 95.4 5.5-78.4 5.6-48.4 5.6 38.9 5.6-11.5 5.6-10.6 5.6 56 5.6-68.1 5.5 101.1 5.6-34.9 5.6-31.6 5.6 12 5.6-24.4 5.6-9.2 5.5-14.9 5.6 36.1 5.6 104.7 5.6-103.6 5.6 82.8 5.6-52.5 5.5-12.6 5.6-2.1 5.6 43.5 5.6-94.5 5.6 57.4 5.6 54.9 5.5-46.2 5.6-18 5.6 2.8 5.6-87.5 5.6 74.8 5.6-21.9 5.5-8.1 5.6-10 5.6 36.1 5.6 102" fill="none" color="#000"/><g fill="none" color="#000" stroke="currentColor"><path stroke="#000" d="M62.2 18.1V446H615V18.1H62.2z"/></g></svg>

<?xml version="1.0" encoding="utf-8"  standalone="no"?>
<svg 
 width="640" height="500"
 viewBox="0 0 640 500"
 xmlns="http://www.w3.org/2000/svg"
 xmlns:xlink="http://www.w3.org/1999/xlink"
>

<title>Gnuplot</title>
<desc>Produced by GNUPLOT 5.4 patchlevel 0 </desc>

<g id="gnuplot_canvas">

<rect x="0" y="0" width="640" height="500" fill="#ffffff"/>
<defs>

	<circle id='gpDot' r='0.5' stroke-width='0.5' stroke='currentColor'/>
	<path id='gpPt0' stroke-width='0.222' stroke='currentColor' d='M-1,0 h2 M0,-1 v2'/>
	<path id='gpPt1' stroke-width='0.222' stroke='currentColor' d='M-1,-1 L1,1 M1,-1 L-1,1'/>
	<path id='gpPt2' stroke-width='0.222' stroke='currentColor' d='M-1,0 L1,0 M0,-1 L0,1 M-1,-1 L1,1 M-1,1 L1,-1'/>
	<rect id='gpPt3' stroke-width='0.222' stroke='currentColor' x='-1' y='-1' width='2' height='2'/>
	<rect id='gpPt4' stroke-width='0.222' stroke='currentColor' fill='currentColor' x='-1' y='-1' width='2' height='2'/>
	<circle id='gpPt5' stroke-width='0.222' stroke='currentColor' cx='0' cy='0' r='1'/>
	<use xlink:href='#gpPt5' id='gpPt6' fill='currentColor' stroke='none'/>
	<path id='gpPt7' stroke-width='0.222' stroke='currentColor' d='M0,-1.33 L-1.33,0.67 L1.33,0.67 z'/>
	<use xlink:href='#gpPt7' id='gpPt8' fill='currentColor' stroke='none'/>
	<use xlink:href='#gpPt7' id='gpPt9' stroke='currentColor' transform='rotate(180)'/>
	<use xlink:href='#gpPt9' id='gpPt10' fill='currentColor' stroke='none'/>
	<use xlink:href='#gpPt3' id='gpPt11' stroke='currentColor' transform='rotate(45)'/>
	<use xlink:href='#gpPt11' id='gpPt12' fill='currentColor' stroke='none'/>
	<path id='gpPt13' stroke-width='0.222' stroke='currentColor' d='M0,1.330 L1.265,0.411 L0.782,-1.067 L-0.782,-1.076 L-1.265,0.411 z'/>
	<use xlink:href='#gpPt13' id='gpPt14' fill='currentColor' stroke='none'/>
	<filter id='textbox' filterUnits='objectBoundingBox' x='0' y='0' height='1' width='1'>
	  <feFlood flood-color='#FFFFFF' flood-opacity='1' result='bgnd'/>
	  <feComposite in='SourceGraphic' in2='bgnd' operator='atop'/>
	</filter>
	<filter id='greybox' filterUnits='objectBoundingBox' x='0' y='0' height='1' width='1'>
	  <feFlood flood-color='lightgrey' flood-opacity='1' result='grey'/>
	  <feComposite in='SourceGraphic' in2='grey' operator='atop'/>
	</filter>
</defs>
<g fill="none" color="#FFFFFF" stroke="black" stroke-width="1.00" stroke-linecap="butt" stroke-linejoin="miter">
</g>
<g fill="none" color="black" stroke="currentColor" stroke-width="1.00" stroke-linecap="butt" stroke-linejoin="miter">
	<path stroke='black'  d='M62.2,430.1 L71.2,430.1 M615.0,430.1 L606.0,430.1  '/>	<g transform="translate(53.9,434.0)" stroke="none" fill="black" font-family="Arial" font-size="12.00"  text-anchor="end">
		<text><tspan font-family="Arial" > 0.42</tspan></text>
	</g>
</g>
<g fill="none" color="black" stroke="currentColor" stroke-width="1.00" stroke-linecap="butt" stroke-linejoin="miter">
	<path stroke='black'  d='M62.2,374.6 L71.2,374.6 M615.0,374.6 L606.0,374.6  '/>	<g transform="translate(53.9,378.5)" stroke="none" fill="black" font-family="Arial" font-size="12.00"  text-anchor="end">
		<text><tspan font-family="Arial" > 0.44</tspan></text>
	</g>
</g>
<g fill="none" color="black" stroke="currentColor" stroke-width="1.00" stroke-linecap="butt" stroke-linejoin="miter">
	<path stroke='black'  d='M62.2,319.2 L71.2,319.2 M615.0,319.2 L606.0,319.2  '/>	<g transform="translate(53.9,323.1)" stroke="none" fill="black" font-family="Arial" font-size="12.00"  text-anchor="end">
		<text><tspan font-family="Arial" > 0.46</tspan></text>
	</g>
</g>
<g fill="none" color="black" stroke="currentColor" stroke-width="1.00" stroke-linecap="butt" stroke-linejoin="miter">
	<path stroke='black'  d='M62.2,263.8 L71.2,263.8 M615.0,263.8 L606.0,263.8  '/>	<g transform="translate(53.9,267.7)" stroke="none" fill="black" font-family="Arial" font-size="12.00"  text-anchor="end">
		<text><tspan font-family="Arial" > 0.48</tspan></text>
	</g>
</g>
<g fill="none" color="black" stroke="currentColor" stroke-width="1.00" stroke-linecap="butt" stroke-linejoin="miter">
	<path stroke='black'  d='M62.2,208.4 L71.2,208.4 M615.0,208.4 L606.0,208.4  '/>	<g transform="translate(53.9,212.3)" stroke="none" fill="black" font-family="Arial" font-size="12.00"  text-anchor="end">
		<text><tspan font-family="Arial" > 0.5</tspan></text>
	</g>
</g>
<g fill="none" color="black" stroke="currentColor" stroke-width="1.00" stroke-linecap="butt" stroke-linejoin="miter">
	<path stroke='black'  d='M62.2,153.0 L71.2,153.0 M615.0,153.0 L606.0,153.0  '/>	<g transform="translate(53.9,156.9)" stroke="none" fill="black" font-family="Arial" font-size="12.00"  text-anchor="end">
		<text><tspan font-family="Arial" > 0.52</tspan></text>
	</g>
</g>
<g fill="none" color="black" stroke="currentColor" stroke-width="1.00" stroke-linecap="butt" stroke-linejoin="miter">
	<path stroke='black'  d='M62.2,97.6 L71.2,97.6 M615.0,97.6 L606.0,97.6  '/>	<g transform="translate(53.9,101.5)" stroke="none" fill="black" font-family="Arial" font-size="12.00"  text-anchor="end">
		<text><tspan font-family="Arial" > 0.54</tspan></text>
	</g>
</g>
<g fill="none" color="black" stroke="currentColor" stroke-width="1.00" stroke-linecap="butt" stroke-linejoin="miter">
	<path stroke='black'  d='M62.2,42.2 L71.2,42.2 M615.0,42.2 L606.0,42.2  '/>	<g transform="translate(53.9,46.1)" stroke="none" fill="black" font-family="Arial" font-size="12.00"  text-anchor="end">
		<text><tspan font-family="Arial" > 0.56</tspan></text>
	</g>
</g>
<g fill="none" color="black" stroke="currentColor" stroke-width="1.00" stroke-linecap="butt" stroke-linejoin="miter">
	<path stroke='black'  d='M62.2,446.0 L62.2,437.0 M62.2,18.1 L62.2,27.1  '/>	<g transform="translate(62.2,467.9)" stroke="none" fill="black" font-family="Arial" font-size="12.00"  text-anchor="middle">
		<text><tspan font-family="Arial" > 0</tspan></text>
	</g>
</g>
<g fill="none" color="black" stroke="currentColor" stroke-width="1.00" stroke-linecap="butt" stroke-linejoin="miter">
	<path stroke='black'  d='M118.0,446.0 L118.0,437.0 M118.0,18.1 L118.0,27.1  '/>	<g transform="translate(118.0,467.9)" stroke="none" fill="black" font-family="Arial" font-size="12.00"  text-anchor="middle">
		<text><tspan font-family="Arial" > 10</tspan></text>
	</g>
</g>
<g fill="none" color="black" stroke="currentColor" stroke-width="1.00" stroke-linecap="butt" stroke-linejoin="miter">
	<path stroke='black'  d='M173.9,446.0 L173.9,437.0 M173.9,18.1 L173.9,27.1  '/>	<g transform="translate(173.9,467.9)" stroke="none" fill="black" font-family="Arial" font-size="12.00"  text-anchor="middle">
		<text><tspan font-family="Arial" > 20</tspan></text>
	</g>
</g>
<g fill="none" color="black" stroke="currentColor" stroke-width="1.00" stroke-linecap="butt" stroke-linejoin="miter">
	<path stroke='black'  d='M229.7,446.0 L229.7,437.0 M229.7,18.1 L229.7,27.1  '/>	<g transform="translate(229.7,467.9)" stroke="none" fill="black" font-family="Arial" font-size="12.00"  text-anchor="middle">
		<text><tspan font-family="Arial" > 30</tspan></text>
	</g>
</g>
<g fill="none" color="black" stroke="currentColor" stroke-width="1.00" stroke-linecap="butt" stroke-linejoin="miter">
	<path stroke='black'  d='M285.6,446.0 L285.6,437.0 M285.6,18.1 L285.6,27.1  '/>	<g transform="translate(285.6,467.9)" stroke="none" fill="black" font-family="Arial" font-size="12.00"  text-anchor="middle">
		<text><tspan font-family="Arial" > 40</tspan></text>
	</g>
</g>
<g fill="none" color="black" stroke="currentColor" stroke-width="1.00" stroke-linecap="butt" stroke-linejoin="miter">
	<path stroke='black'  d='M341.4,446.0 L341.4,437.0 M341.4,18.1 L341.4,27.1  '/>	<g transform="translate(341.4,467.9)" stroke="none" fill="black" font-family="Arial" font-size="12.00"  text-anchor="middle">
		<text><tspan font-family="Arial" > 50</tspan></text>
	</g>
</g>
<g fill="none" color="black" stroke="currentColor" stroke-width="1.00" stroke-linecap="butt" stroke-linejoin="miter">
	<path stroke='black'  d='M397.2,446.0 L397.2,437.0 M397.2,18.1 L397.2,27.1  '/>	<g transform="translate(397.2,467.9)" stroke="none" fill="black" font-family="Arial" font-size="12.00"  text-anchor="middle">
		<text><tspan font-family="Arial" > 60</tspan></text>
	</g>
</g>
<g fill="none" color="black" stroke="currentColor" stroke-width="1.00" stroke-linecap="butt" stroke-linejoin="miter">
	<path stroke='black'  d='M453.1,446.0 L453.1,437.0 M453.1,18.1 L453.1,27.1  '/>	<g transform="translate(453.1,467.9)" stroke="none" fill="black" font-family="Arial" font-size="12.00"  text-anchor="middle">
		<text><tspan font-family="Arial" > 70</tspan></text>
	</g>
</g>
<g fill="none" color="black" stroke="currentColor" stroke-width="1.00" stroke-linecap="butt" stroke-linejoin="miter">
	<path stroke='black'  d='M508.9,446.0 L508.9,437.0 M508.9,18.1 L508.9,27.1  '/>	<g transform="translate(508.9,467.9)" stroke="none" fill="black" font-family="Arial" font-size="12.00"  text-anchor="middle">
		<text><tspan font-family="Arial" > 80</tspan></text>
	</g>
</g>
<g fill="none" color="black" stroke="currentColor" stroke-width="1.00" stroke-linecap="butt" stroke-linejoin="miter">
	<path stroke='black'  d='M564.7,446.0 L564.7,437.0 M564.7,18.1 L564.7,27.1  '/>	<g transform="translate(564.7,467.9)" stroke="none" fill="black" font-family="Arial" font-size="12.00"  text-anchor="middle">
		<text><tspan font-family="Arial" > 90</tspan></text>
	</g>
</g>
<g fill="none" color="black" stroke="currentColor" stroke-width="1.00" stroke-linecap="butt" stroke-linejoin="miter">
</g>
<g fill="none" color="black" stroke="currentColor" stroke-width="1.00" stroke-linecap="butt" stroke-linejoin="miter">
	<path stroke='black'  d='M62.2,18.1 L62.2,446.0 L615.0,446.0 L615.0,18.1 L62.2,18.1 Z  '/></g>
<g fill="none" color="black" stroke="currentColor" stroke-width="1.00" stroke-linecap="butt" stroke-linejoin="miter">
</g>
	<g id="gnuplot_plot_1" ><title>pages</title>
<g fill="none" color="black" stroke="currentColor" stroke-width="1.00" stroke-linecap="butt" stroke-linejoin="miter">
	<g transform="translate(279.8,485.9)" stroke="none" fill="black" font-family="Arial" font-size="12.00"  text-anchor="end">
		<text><tspan font-family="Arial" >pages</tspan></text>
	</g>
</g>
<g fill="none" color="black" stroke="currentColor" stroke-width="1.00" stroke-linecap="butt" stroke-linejoin="miter">
	<path stroke='rgb(148,   0, 211)'  d='M288.1,482.0 L330.3,482.0 M62.2,437.8 L67.8,190.3 L73.4,282.9 L79.0,222.5 L84.5,168.4 L90.1,291.5
		L95.7,281.5 L101.3,230.8 L106.9,301.2 L112.5,177.9 L118.0,228.3 L123.6,261.0 L129.2,220.3 L134.8,288.3
		L140.4,281.3 L146.0,243.5 L151.5,182.5 L157.1,165.9 L162.7,307.4 L168.3,283.3 L173.9,240.8 L179.5,275.1
		L185.0,267.8 L190.6,236.4 L196.2,283.9 L201.8,277.8 L207.4,286.2 L213.0,280.6 L218.5,168.7 L224.1,284.9
		L229.7,293.5 L235.3,308.2 L240.9,168.7 L246.5,281.3 L252.1,287.3 L257.6,281.6 L263.2,278.3 L268.8,278.5
		L274.4,293.8 L280.0,289.4 L285.6,278.8 L291.1,220.4 L296.7,174.1 L302.3,319.8 L307.9,290.4 L313.5,191.0
		L319.1,290.0 L324.6,283.7 L330.2,169.2 L335.8,287.7 L341.4,325.0 L347.0,211.3 L352.6,264.4 L358.1,240.3
		L363.7,285.6 L369.3,289.0 L374.9,276.5 L380.5,275.6 L386.1,176.6 L391.6,282.4 L397.2,304.7 L402.8,273.5
		L408.4,179.5 L414.0,280.7 L419.6,282.2 L425.1,199.5 L430.7,287.9 L436.3,232.7 L441.9,210.4 L447.5,259.8
		L453.1,287.2 L458.7,214.5 L464.2,298.7 L469.8,297.5 L475.4,285.9 L481.0,286.0 L486.6,295.9 L492.2,290.8
		L497.7,283.7 L503.3,308.2 L508.9,277.2 L514.5,293.0 L520.1,276.0 L525.7,181.3 L531.2,165.8 L536.8,403.0
		L542.4,235.1 L548.0,174.5 L553.6,283.2 L559.2,319.4 L564.7,273.8 L570.3,280.2 L575.9,174.2 L581.5,169.8
		L587.1,281.8 L592.7,295.5 L598.2,289.5 L603.8,180.0 L609.4,171.0 L615.0,240.1  '/></g>
	</g>
	<g id="gnuplot_plot_2" ><title>pages+cached</title>
<g fill="none" color="black" stroke="currentColor" stroke-width="1.00" stroke-linecap="butt" stroke-linejoin="miter">
	<g transform="translate(438.2,485.9)" stroke="none" fill="black" font-family="Arial" font-size="12.00"  text-anchor="end">
		<text><tspan font-family="Arial" >pages+cached</tspan></text>
	</g>
</g>
<g fill="none" color="black" stroke="currentColor" stroke-width="1.00" stroke-linecap="butt" stroke-linejoin="miter">
	<path stroke='rgb(  0, 158, 115)'  d='M446.5,482.0 L488.7,482.0 M62.2,160.8 L67.8,182.0 L73.4,97.2 L79.0,128.6 L84.5,122.9 L90.1,182.4
		L95.7,57.4 L101.3,232.4 L106.9,160.9 L112.5,135.3 L118.0,70.9 L123.6,140.5 L129.2,82.5 L134.8,218.9
		L140.4,134.6 L146.0,183.6 L151.5,81.1 L157.1,186.6 L162.7,102.3 L168.3,156.8 L173.9,92.4 L179.5,94.7
		L185.0,157.6 L190.6,63.2 L196.2,105.3 L201.8,107.3 L207.4,81.5 L213.0,156.2 L218.5,92.1 L224.1,161.4
		L229.7,137.5 L235.3,117.8 L240.9,75.1 L246.5,79.1 L252.1,132.3 L257.6,134.1 L263.2,126.4 L268.8,192.9
		L274.4,80.0 L280.0,142.2 L285.6,80.6 L291.1,127.5 L296.7,136.5 L302.3,203.7 L307.9,107.3 L313.5,103.6
		L319.1,110.6 L324.6,84.1 L330.2,60.0 L335.8,134.4 L341.4,71.8 L347.0,116.1 L352.6,64.7 L358.1,136.0
		L363.7,136.1 L369.3,124.0 L374.9,180.7 L380.5,161.7 L386.1,149.3 L391.6,94.2 L397.2,210.7 L402.8,139.8
		L408.4,72.2 L414.0,89.7 L419.6,185.1 L425.1,106.7 L430.7,58.3 L436.3,97.2 L441.9,85.7 L447.5,75.1
		L453.1,131.1 L458.7,63.0 L464.2,164.1 L469.8,129.2 L475.4,97.6 L481.0,109.6 L486.6,85.2 L492.2,76.0
		L497.7,61.1 L503.3,97.2 L508.9,201.9 L514.5,98.3 L520.1,181.1 L525.7,128.6 L531.2,116.0 L536.8,113.9
		L542.4,157.4 L548.0,62.9 L553.6,120.3 L559.2,175.2 L564.7,129.0 L570.3,111.0 L575.9,113.8 L581.5,26.3
		L587.1,101.1 L592.7,79.2 L598.2,71.1 L603.8,61.1 L609.4,97.2 L615.0,199.2  '/></g>
	</g>
<g fill="none" color="#FFFFFF" stroke="rgb(  0, 158, 115)" stroke-width="2.00" stroke-linecap="butt" stroke-linejoin="miter">
</g>
<g fill="none" color="black" stroke="currentColor" stroke-width="2.00" stroke-linecap="butt" stroke-linejoin="miter">
</g>
<g fill="none" color="black" stroke="black" stroke-width="1.00" stroke-linecap="butt" stroke-linejoin="miter">
</g>
<g fill="none" color="black" stroke="currentColor" stroke-width="1.00" stroke-linecap="butt" stroke-linejoin="miter">
	<path stroke='black'  d='M62.2,18.1 L62.2,446.0 L615.0,446.0 L615.0,18.1 L62.2,18.1 Z  '/></g>
<g fill="none" color="black" stroke="currentColor" stroke-width="1.00" stroke-linecap="butt" stroke-linejoin="miter">
</g>
</g>
</svg>
